X:280
T:Mr Young's Delight.
C:John Malchair's Third Collection of Tunes
F:https://www.vwml.org/record/Malchair/3619/p28
F:www.vwml.org/topics/historic-dance-and-tune-books/Malchair
Z:Eric Conrad Jan 2020
N:NB1 No repeats in MS.  Assuming parts are repeated.
M:C|
L:1/8
W:Duplicate p84.
K:F
P:A
|: "_NB1"c2 | A2F2 F2G2 | A4 d4 | c3d (cd)(cA) | B2 G4 B2 |
A2 F4 G2 | A4 d4 | f3g (fg)(ag) | f2 c4 f2 |
d3c (de)fd | (cd)(cB) (Ac)(fc) | (de)(fd) (cd)(cA) | B2G2 G2B2 |
A2 F4 G2 | A4 d4 | c3d (cd)(cA) | B2 G4 :|
P:B
|: (ag) | (fg)(af) (ga)(bg) | (ab)(ga) (fg)(ef) | (de)(fd) (ge)(dc) | G2 c4 B>A |
(Bd)(fd) (Ac)(fc) | (Bd)(fd) (Ac)(fc) | (dc)(BA) (GA)(GF) | F6 :|

